X:35
%%score 1 2
%%pagewidth 850pt
T:I have house and land in Kent
M:2/4
L:1/8
K:Bb
V:1 clef-treble
V:2 clef-bass octave=-1
V:1
[B,G][D^FA]|[DGB]d[EGc]B|[=FA]>F[EG]A|BBcc & D2 G2|
w:I have house and land in Kent, And if you'll love me, love me
V:2
G,D|G2E2|[Fc]4|[B,B]2 [EG]2|
V:1
[^Fd]2 dd & x2 G2|cB/A/ BG & D2 D2|[D^F]D B/c/d & x2 D2|cG[DB][CA] & E2x2|
w:now. Two-pence half-penny* is my rent, I can-not come ev-'ry day to
V:2
A2x2 & D>C[B,G]2|[A,^F]2 [G,G]2|[DA]2 [G,G]2|[CG]2 [DG][D^F]|
V:1
[B,G] "^Chorus"G[DGd][DAd]|cB/A/ B[DG] & [DG]3x|[D^F]D B/c/d & x2 [DG][DG]|[EGc][CG][DGB][D^FA]|[B,G]2||
w:woo. Yes, two-pence half-penny* is his rent, He can-not come ev-'ry day to woo.
V:2
G2 B,^F, & ED/C/x2|G,3B,|DDG,B,|CEDD|G2||

